images/nav_items/dropdown-arrow.svg

<svg width="11" height="6" viewBox="0 0 11 6" fill="none" xmlns="http://www.w3.org/2000/svg">
<g clip-path="url(#clip0)">
<path d="M6.1 5.8001L10.8 1.3001C11.1 1.0001 11.1 0.500098 10.8 0.200098C10.5 -0.0999023 10 -0.0999023 9.7 0.200098L5.5 4.2001L1.3 0.200098C1 -0.0999023 0.5 -0.0999023 0.2 0.200098C0.1 0.400098 0 0.600098 0 0.800098C0 1.0001 0.1 1.2001 0.2 1.3001L4.9 5.8001C5.3 6.1001 5.7 6.1001 6.1 5.8001Z" fill="black"/>
</g>
<defs>
<clipPath id="clip0">
<rect width="11" height="6" fill="white"/>
</clipPath>
</defs>
</svg>

<svg width="11" height="6" fill="none" xmlns="http://www.w3.org/2000/svg"><g clip-path="url(#a)"><path d="m6.1 5.8 4.7-4.5c.3-.3.3-.8 0-1.1-.3-.3-.8-.3-1.1 0l-4.2 4-4.2-4C1-.1.5-.1.2.2.1.4 0 .6 0 .8c0 .2.1.4.2.5l4.7 4.5c.4.3.8.3 1.2 0Z" fill="#000"/></g><defs><clipPath id="a"><path fill="#fff" d="M0 0h11v6H0z"/></clipPath></defs></svg>
